X: 90
T: The Swallow's Tail
B: begged borrowed and stolen
M:4/4
L:1/4
Q: 1/4=140
K:D
V:1 
g/2f/2|:"Am"e/2A/2 (3A/2A/2A/2 e/2A/2c/2A/2|"Em"B/2d/2e/2f/2 "D7"g/2e/2d/2B/2|\
"G"GB/2G/2 d/2G/2B/2G/2|"G"B/2d/2e/2f/2 "Em"gf/2g/2|
"Am"e/2A/2 (3A/2A/2A/2 e/2A/2c/2A/2|(3B/c/d/ e/f/  "Em"g f/2g/2|\
"D7"a/2f/2g/2e/2 "G"d/2f/2e/2d/2|1"Em"c/2A/2B/2G/2 "Am"A g/f/:|2 "Em"c/2A/2B/2G/2 "Am"A B/d/ ||
|:"Am"e/2a/2a/2b/2 a/2g/2e/2d/2|"D7"e/2d/2e/2f/2 "G"g/2e/2d/2B/2|\
"G"GB/2G/2 d/2G/2B/2G/2|"G"B/2d/2e/2f/2 "Em"gf/2g/2|
"Am"e/2a/2a/2b/2 a/2g/2e/2d/2|c/2d/2e/2f/2 "Em"g/2f/2g/2b/2|\
"C"a/2f/2g/2e/2 "Em"d/2f/2e/2d/2|1"G"c/2A/2B/2G/2 "Am"A  B/d/:|2"Em"c/2A/2B/2G/2 "Am"A2||
% abcbook-tune_id 627e2b1f16f4bfaaf120c9de


% abcbook-boost 0
% abcbook-tablature 
% abcbook-transpose 
% abcbook-lastupdated 1652725431131
% abcbook-soundfonts 
% abcbook-repeats 3
% Nottingham Music Database
% Titles One title
% Transcriptions Only 1 transcription
% Movement Has some stepwise movement
% Mode major
% Key G
% Time_signature 4/4
% Text Has source text
% Has_accompaniment_chords Has chords

